X: 18279
T: Humours Of Scarriff, The
R: reel
M: 4/4
K: Bminor
FBBc d2cB|AFEA FAEA|FBBc d2cB|AFEC CB,B,2:|
|:cAeA fAeA|cAeA cffe|1 cAeA fAeA|cBAB cBB2:|2 ~f3e cecB|AFEC CB,B,2||

